tipitek/img/advantage-icon-6.svg

<svg width="56" height="56" viewBox="0 0 56 56" fill="none" xmlns="http://www.w3.org/2000/svg">
<g clip-path="url(#clip0_596_5193)">
<path fill-rule="evenodd" clip-rule="evenodd" d="M38.1743 46.608L46.6072 38.1853C47.3222 37.4711 47.3222 36.3013 46.6072 35.5871L45.2168 34.2006C44.5017 33.4863 43.3327 33.4863 42.6176 34.2006L42.5801 34.236L34.2202 42.5857L34.1847 42.6233C33.4697 43.3375 33.4697 44.5051 34.1847 45.2193L35.5751 46.608C35.7143 46.7471 35.875 46.8628 36.0511 46.9507H37.6983C37.871 46.8645 38.0304 46.7495 38.1743 46.608Z" fill="#DAD0D3"/>
<path fill-rule="evenodd" clip-rule="evenodd" d="M34.2204 42.5858L42.5802 34.2361L38.9228 30.583C33.4455 27.4807 29.0111 34.5921 30.2309 38.6011L34.2204 42.5858Z" fill="#FFDCD5"/>
<path fill-rule="evenodd" clip-rule="evenodd" d="M18.163 46.9508H19.8102C19.9829 46.8646 20.1423 46.7496 20.2862 46.608L21.6766 45.2194C22.3916 44.5051 22.3916 43.3376 21.6766 42.6233L21.6389 42.5858L13.2791 34.2361L13.2436 34.2008C12.5285 33.4865 11.3573 33.4865 10.6423 34.2008L9.25414 35.5872C8.53898 36.3015 8.53898 37.4712 9.25414 38.1854L17.6848 46.6081C17.8252 46.7467 17.9866 46.8624 18.163 46.9508Z" fill="#9D9AE8"/>
<path fill-rule="evenodd" clip-rule="evenodd" d="M31.5864 37.9089L36.7492 32.7545L38.9234 30.583L39.6075 29.8998C40.3623 29.1434 40.3623 27.9096 39.6075 27.1555C38.8526 26.3993 37.6149 26.3993 36.86 27.1555L37.5485 26.4656C38.3056 25.7116 38.3056 24.4755 37.5485 23.7215C36.7935 22.9652 35.5559 22.9652 34.801 23.7215L35.4895 23.0316C36.2467 22.2776 36.2467 21.0415 35.4895 20.2874C34.7346 19.5334 33.497 19.5334 32.742 20.2874L33.4328 19.5998C34.1877 18.8435 34.1877 17.6096 33.4328 16.8534C32.9745 16.3978 32.3414 16.2166 31.7458 16.3138C31.3561 16.3758 30.982 16.5548 30.683 16.8534L27.9312 19.6041L28.0197 19.6926L28.0352 19.7081C28.7902 20.4621 28.7902 21.6982 28.0352 22.4523C27.2802 23.2085 26.0427 23.2085 25.2877 22.4523C26.0427 23.2085 26.0427 24.4423 25.2877 25.1986C24.5305 25.9527 23.2952 25.9527 22.538 25.1986C23.2952 25.9527 23.2952 27.1888 22.538 27.9428C21.783 28.6968 20.5477 28.6968 19.7905 27.9428C20.5477 28.6968 20.5477 29.933 19.7905 30.687C19.0355 31.4432 17.798 31.4432 17.043 30.687L16.9389 30.583L13.2793 34.236L21.6391 42.5857L25.1327 39.0963C26.1223 38.0726 28.4402 38.9681 30.2313 38.601C30.7407 38.4971 31.2055 38.2892 31.5864 37.9089Z" fill="#FFD0C7"/>
<path fill-rule="evenodd" clip-rule="evenodd" d="M25.287 22.4522C26.042 23.2085 27.2795 23.2085 28.0345 22.4522C28.7895 21.6982 28.7895 20.4621 28.0345 19.7081L28.019 19.6925C26.8523 19.6085 24.6206 17.5853 24.4878 16.1656C23.7305 15.4093 22.4952 15.4093 21.7381 16.1656C20.9831 16.9196 20.9831 18.1557 21.7381 18.9097L22.4288 19.5996L25.287 22.4522Z" fill="#FFDCD5"/>
<path fill-rule="evenodd" clip-rule="evenodd" d="M22.5381 25.1986C23.2953 25.9527 24.5307 25.9527 25.2878 25.1986C26.0428 24.4424 26.0428 23.2085 25.2878 22.4523L22.4296 19.5998C21.6725 18.8435 20.4371 18.8435 19.6821 19.5998C18.925 20.3538 18.925 21.5877 19.6821 22.3439L20.3707 23.0317L22.5381 25.1986Z" fill="#FFDCD5"/>
<path fill-rule="evenodd" clip-rule="evenodd" d="M19.7899 27.9428C20.5471 28.6968 21.7825 28.6968 22.5374 27.9428C23.2946 27.1887 23.2946 25.9526 22.5374 25.1986L20.37 23.0316C19.6151 22.2776 18.3775 22.2776 17.6225 23.0316C16.8654 23.7878 16.8654 25.0217 17.6225 25.778L19.0018 27.1555L19.7899 27.9428Z" fill="#FFDCD5"/>
<path fill-rule="evenodd" clip-rule="evenodd" d="M17.0431 30.687C17.7981 31.4432 19.0357 31.4432 19.7906 30.687C20.5478 29.933 20.5478 28.6968 19.7906 27.9428L19.0025 27.1556C18.2453 26.3993 17.0099 26.3993 16.2528 27.1556C15.4978 27.9096 15.4978 29.1434 16.2528 29.8998L16.9391 30.583L17.0431 30.687ZM27.9312 19.6041L30.6831 16.8534C30.982 16.5549 31.3561 16.3758 31.7458 16.3138L26.4301 15.3077C25.3807 15.1087 24.3867 15.1021 24.4886 16.1657C24.6214 17.5853 26.853 19.6086 28.0197 19.6927L27.9312 19.6041Z" fill="#FFDCD5"/>
<path d="M27.9307 13.0828C28.3652 13.0828 28.7175 12.7305 28.7175 12.296V8.7868C28.7175 8.35227 28.3652 8 27.9307 8C27.4962 8 27.1439 8.35227 27.1439 8.7868V12.296C27.144 12.7305 27.4963 13.0828 27.9307 13.0828ZM47.163 35.0301L45.773 33.6441C45.2786 33.1502 44.6196 32.8782 43.9174 32.8782C43.4684 32.8782 43.0374 32.9899 42.6555 33.1992L40.0363 30.5831L40.1638 30.4557C41.2264 29.391 41.226 27.6609 40.1637 26.5998C39.7898 26.2239 39.3135 25.9663 38.7941 25.8592C38.8662 25.6105 38.9027 25.3527 38.9027 25.0938C38.9027 24.3629 38.6187 23.6776 38.1048 23.1658C37.7309 22.7898 37.2546 22.5322 36.7352 22.4252C36.8073 22.1764 36.8438 21.9187 36.8438 21.6597C36.8438 20.9287 36.5598 20.2435 36.0451 19.7309C35.6708 19.3565 35.1951 19.0997 34.6766 18.9923C34.9451 18.0667 34.7157 17.0254 33.9876 16.296C33.3816 15.6925 32.5591 15.4331 31.7665 15.5172L26.5763 14.5348C25.7847 14.3846 24.7962 14.2853 24.1723 14.8545C24.1329 14.8904 24.0927 14.9317 24.0531 14.9777C23.0856 14.6251 21.9573 14.8351 21.1824 15.609C20.6684 16.1223 20.3853 16.8073 20.3853 17.5378C20.3853 17.8009 20.4226 18.0579 20.4936 18.3034C19.9752 18.4102 19.4997 18.6672 19.1264 19.0423C18.6114 19.5552 18.3274 20.2395 18.3269 20.9691C18.3265 21.2288 18.3631 21.4873 18.4355 21.7367C17.9167 21.8434 17.4407 22.1001 17.0666 22.475C16.5516 22.9895 16.268 23.6748 16.268 24.4049C16.268 24.9642 16.4349 25.4969 16.7443 25.9469C16.3495 26.0808 15.9908 26.3039 15.6962 26.599C14.633 27.6609 14.6326 29.3911 15.697 30.4573L15.8241 30.5839L13.2045 33.1987C12.231 32.7403 11.0316 32.912 10.2282 33.7144L8.83742 35.1012C8.34273 35.5953 8.07039 36.2544 8.07031 36.957C8.07031 37.6596 8.34273 38.3188 8.83742 38.8129L10.5731 40.5465C10.8805 40.8536 11.3788 40.8533 11.6858 40.5459C11.9929 40.2384 11.9926 39.7402 11.6852 39.4332L9.94945 37.6996C9.75242 37.5028 9.64391 37.2391 9.64391 36.957C9.64391 36.6751 9.75242 36.4114 9.94898 36.2151L11.3398 34.8281C11.6873 34.4809 12.2192 34.4293 12.6231 34.6708C12.7034 34.792 12.816 34.8884 12.9482 34.9491L20.9242 42.9134C20.9628 42.9983 21.0163 43.0756 21.082 43.1417C21.1463 43.2059 21.2212 43.2583 21.3035 43.2967C21.4731 43.4881 21.5663 43.7352 21.5654 43.9909C21.5654 44.2729 21.4569 44.5366 21.2598 44.7334L19.8704 46.1212C19.4598 46.5299 18.792 46.5298 18.3827 46.1224L16.647 44.3866C16.3397 44.0793 15.8416 44.0793 15.5343 44.3865C15.227 44.6938 15.227 45.1919 15.5342 45.4991L17.2712 47.2363C17.7825 47.7453 18.4539 47.9998 19.1255 47.9998C19.7974 47.9998 20.4696 47.745 20.9815 47.2354L22.3718 45.8467C22.8665 45.3526 23.1389 44.6935 23.1389 43.9908C23.1389 43.4893 22.9995 43.0104 22.7401 42.5974L25.6882 39.6529L25.6977 39.6434C26.0352 39.2944 26.9753 39.3597 27.8845 39.4228C28.5304 39.4677 29.2505 39.5177 29.9541 39.4366L33.1826 42.6612C32.9734 43.0425 32.8618 43.473 32.8618 43.9212C32.8618 44.6232 33.1342 45.2819 33.6289 45.776L35.0193 47.1647C35.5137 47.6585 36.1727 47.9305 36.8748 47.9305C37.577 47.9305 38.2359 47.6585 38.7304 47.1647L47.1633 38.742C47.658 38.248 47.9304 37.5889 47.9304 36.8862C47.9305 36.1837 47.6581 35.5246 47.163 35.0301ZM26.2833 16.0809L29.6963 16.7269L27.6534 18.769C27.3374 18.6171 26.9043 18.3338 26.4291 17.8793C25.7787 17.2571 25.3134 16.5387 25.2712 16.0907L25.2711 16.09V16.0898C25.2685 16.064 25.2673 16.0381 25.2677 16.0123C25.3704 15.9873 25.6438 15.9595 26.2833 16.0809ZM22.2944 16.7223C22.693 16.3241 23.3122 16.2782 23.7626 16.5832C24.0178 17.6534 24.9307 18.6233 25.3414 19.0162C25.6458 19.3075 26.6224 20.1807 27.6082 20.4207C27.743 20.6142 27.8149 20.8445 27.8141 21.0802C27.8141 21.39 27.695 21.6796 27.4779 21.8965C27.2614 22.1134 26.9713 22.2327 26.661 22.2327C26.3506 22.2327 26.0605 22.1134 25.843 21.8955L25.843 21.8954L25.8426 21.895L22.2943 18.3531C22.078 18.1371 21.9588 17.8475 21.9588 17.5378C21.9589 17.228 22.078 16.9384 22.2944 16.7223ZM20.2384 20.1557C20.4549 19.9389 20.7447 19.8195 21.0545 19.8195C21.3648 19.8195 21.6555 19.9391 21.8734 20.1568L24.7305 23.0083C25.1805 23.4589 25.1805 24.1922 24.7321 24.6413C24.5145 24.858 24.2234 24.9774 23.9125 24.9774C23.6016 24.9774 23.3105 24.858 23.0938 24.6422L23.0938 24.6421L20.9262 22.475C20.9228 22.4716 20.9191 22.4685 20.9157 22.4651L20.2376 21.7873C20.02 21.5699 19.9002 21.2798 19.9005 20.9702C19.9008 20.6617 20.0202 20.373 20.2384 20.1557ZM18.1786 23.5884C18.3952 23.372 18.6856 23.2529 18.9964 23.2529C19.3046 23.2529 19.5925 23.3703 19.8082 23.5829L21.9824 25.7561C22.1992 25.972 22.3187 26.2613 22.3187 26.5707C22.3187 26.88 22.1992 27.1693 21.9816 27.3861C21.765 27.6023 21.4749 27.7215 21.1647 27.7215C20.854 27.7215 20.563 27.602 20.3461 27.3861L19.5579 26.5988L19.5573 26.5983L18.1787 25.2213C17.9613 25.0041 17.8416 24.7141 17.8416 24.4048C17.8416 24.0955 17.9613 23.8054 18.1786 23.5884ZM16.8083 27.7123C17.0259 27.495 17.3166 27.3753 17.627 27.3753C17.9373 27.3753 18.228 27.4949 18.4455 27.7121L19.2348 28.5005C19.4516 28.7164 19.5711 29.0057 19.5711 29.3151C19.5711 29.6245 19.4516 29.9137 19.2332 30.1313C19.0167 30.3481 18.7266 30.4676 18.4163 30.4676C18.1059 30.4676 17.8159 30.3482 17.5978 30.1298L17.499 30.0313C17.4977 30.03 17.4966 30.0286 17.4954 30.0273L17.4909 30.0233L16.8091 29.3441C16.3591 28.8932 16.3588 28.1612 16.8083 27.7123ZM32.8422 36.6543C32.5351 36.3468 32.0369 36.3466 31.7295 36.6536L31.0295 37.3527C30.3644 38.0178 29.1591 37.9341 27.9935 37.8532C26.7278 37.7652 25.419 37.6745 24.572 38.544L21.674 41.4385L14.4269 34.202L16.9916 31.642C17.4155 31.9018 17.9046 32.0411 18.4164 32.0411C19.1475 32.0411 19.8332 31.7577 20.3453 31.2446C20.8609 30.7312 21.1448 30.0459 21.1448 29.315C21.1448 29.3082 21.1444 29.3015 21.1444 29.2947C21.1512 29.2948 21.158 29.2952 21.1648 29.2952C21.8949 29.2952 22.58 29.0126 23.0928 28.5004C23.6084 27.987 23.8923 27.3016 23.8923 26.5708C23.8923 26.564 23.8919 26.5573 23.8919 26.5505C23.8988 26.5505 23.9056 26.5509 23.9126 26.5509C24.6425 26.5509 25.328 26.2687 25.8442 25.7545C26.3802 25.2177 26.6452 24.511 26.6402 23.8058C26.6472 23.8058 26.6542 23.8063 26.6613 23.8063C27.3924 23.8063 28.078 23.5228 28.5909 23.009C29.1048 22.4956 29.388 21.8106 29.388 21.0802C29.388 20.5694 29.2491 20.081 28.9901 19.6579L31.238 17.4109C31.3994 17.25 31.6049 17.1405 31.8285 17.0962C31.852 17.0938 31.8751 17.09 31.898 17.0855C32.2453 17.0376 32.6101 17.1447 32.8757 17.4093C33.3256 17.86 33.3256 18.5933 32.8773 19.0423L32.1927 19.7241C32.1905 19.7264 32.188 19.7284 32.1858 19.7308L31.3973 20.518C31.0898 20.825 31.0895 21.3232 31.3966 21.6306C31.7038 21.9381 32.202 21.9384 32.5093 21.6313L33.1966 20.9449L33.1971 20.9445L33.301 20.8409C33.7522 20.3939 34.4831 20.3948 34.9338 20.8449C35.1507 21.0609 35.2702 21.3502 35.2702 21.6595C35.2702 21.9688 35.1507 22.2581 34.9321 22.4758L34.2436 23.1657L34.2434 23.166L33.4549 23.9513C33.147 24.2579 33.146 24.7561 33.4527 25.0639C33.7593 25.3718 34.2574 25.3727 34.5653 25.0662L35.3573 24.2773C35.5738 24.0605 35.8639 23.9411 36.1742 23.9411C36.4846 23.9411 36.7748 24.0605 36.9928 24.2789C37.2097 24.4949 37.3291 24.7842 37.3291 25.0935C37.3291 25.4028 37.2097 25.6921 36.9916 25.9093L35.6189 27.2825C35.3117 27.5898 35.3118 28.088 35.6191 28.3952C35.692 28.4683 35.7787 28.5263 35.8742 28.5658C35.9697 28.6053 36.072 28.6256 36.1753 28.6255C36.3767 28.6255 36.5781 28.5486 36.7317 28.3949L37.4045 27.722C37.4083 27.7183 37.4124 27.7151 37.4162 27.7113C37.6327 27.4944 37.9228 27.375 38.2331 27.375C38.5434 27.375 38.8336 27.4944 39.0509 27.712C39.5003 28.161 39.4999 28.893 39.0509 29.3429L38.367 30.0261L38.3662 30.0268L38.3655 30.0276L37.2798 31.1119C36.9724 31.419 36.9721 31.9171 37.2791 32.2246C37.3521 32.2979 37.4389 32.356 37.5345 32.3956C37.63 32.4352 37.7324 32.4555 37.8359 32.4554C37.9391 32.4555 38.0414 32.4353 38.1368 32.3958C38.2322 32.3563 38.3189 32.2984 38.3919 32.2253L38.9229 31.6949L41.468 34.237L34.2215 41.4747L31.6251 38.8814C31.8117 38.7617 31.985 38.6223 32.1419 38.4655L32.8415 37.7668C33.149 37.4599 33.1493 36.9617 32.8422 36.6543ZM46.0514 37.6287L37.6185 46.0513C37.4212 46.2484 37.1572 46.3569 36.875 46.3569C36.5928 46.3569 36.3287 46.2484 36.1314 46.0513L34.741 44.6626C34.544 44.4659 34.4355 44.2026 34.4355 43.9212C34.4355 43.64 34.544 43.3767 34.741 43.1799L43.1739 34.7573C43.3713 34.5602 43.6353 34.4516 43.9175 34.4516C44.1997 34.4516 44.4637 34.5602 44.6615 34.7577L46.0514 36.1437C46.2484 36.3405 46.357 36.6041 46.357 36.8862C46.357 37.1683 46.2484 37.432 46.0514 37.6287ZM17.4831 12.4195C17.5561 12.4925 17.6427 12.5504 17.7381 12.5898C17.8335 12.6293 17.9357 12.6495 18.0389 12.6494C18.2405 12.6494 18.4421 12.5723 18.5958 12.4184C18.9027 12.1108 18.9023 11.6127 18.5947 11.3057L15.7277 8.44438C15.4202 8.13734 14.922 8.13781 14.615 8.44547C14.308 8.75305 14.3085 9.25117 14.6161 9.55813L17.4831 12.4195ZM37.8225 12.6495C38.0237 12.6495 38.2249 12.5727 38.3785 12.4194L41.2434 9.55797C41.5508 9.25094 41.5511 8.75273 41.244 8.44531C40.937 8.13781 40.4388 8.13758 40.1313 8.44469L37.2665 11.3061C36.9591 11.6131 36.9587 12.1113 37.2659 12.4188C37.3389 12.492 37.4256 12.5501 37.5211 12.5897C37.6167 12.6293 37.7191 12.6496 37.8225 12.6495Z" fill="black"/>
<path d="M12.9083 41.844C12.6037 42.1539 12.6079 42.6521 12.9179 42.9567L12.9201 42.9589C13.0666 43.1034 13.2642 43.1843 13.47 43.184C13.6736 43.184 13.8773 43.1052 14.0316 42.9482C14.3362 42.6384 14.3308 42.1391 14.021 41.8345C13.7111 41.5299 13.213 41.5342 12.9083 41.844ZM34.7666 35.5208C34.8863 35.5208 35.0077 35.4935 35.1217 35.4361C35.5097 35.2404 35.6655 34.7673 35.4699 34.3793C35.2742 33.9914 34.801 33.8354 34.4131 34.0311L34.4087 34.0333C34.0208 34.229 33.8671 34.701 34.0627 35.089C34.2008 35.3631 34.4786 35.5208 34.7666 35.5208Z" fill="black"/>
</g>
<defs>
<clipPath id="clip0_596_5193">
<rect width="40" height="40" fill="white" transform="translate(8 8)"/>
</clipPath>
</defs>
</svg>

<svg width="56" height="56" fill="none" xmlns="http://www.w3.org/2000/svg"><g clip-path="url(#clip0_596_5193)"><path fill-rule="evenodd" clip-rule="evenodd" d="M38.174 46.608l8.433-8.423a1.842 1.842 0 0 0 0-2.598l-1.39-1.386a1.844 1.844 0 0 0-2.6 0l-.037.035-8.36 8.35-.035.037a1.839 1.839 0 0 0 0 2.596l1.39 1.389c.14.14.3.255.476.343h1.647a1.87 1.87 0 0 0 .476-.343z" fill="#DAD0D3"/><path fill-rule="evenodd" clip-rule="evenodd" d="M34.22 42.586l8.36-8.35-3.657-3.653c-5.477-3.102-9.912 4.01-8.692 8.018l3.99 3.985z" fill="#FFDCD5"/><path fill-rule="evenodd" clip-rule="evenodd" d="M18.163 46.95h1.647c.173-.085.332-.2.476-.342l1.39-1.389a1.84 1.84 0 0 0 0-2.596l-.037-.037-8.36-8.35-.035-.035a1.847 1.847 0 0 0-2.602 0l-1.388 1.386a1.841 1.841 0 0 0 0 2.598l8.43 8.423c.141.139.303.254.479.343z" fill="#9D9AE8"/><path fill-rule="evenodd" clip-rule="evenodd" d="M31.586 37.909l5.163-5.154 2.174-2.172.684-.683a1.946 1.946 0 0 0 0-2.744 1.947 1.947 0 0 0-2.747 0l.688-.69a1.942 1.942 0 1 0-2.747-2.745l.688-.69a1.942 1.942 0 0 0 0-2.744 1.951 1.951 0 0 0-2.747 0l.69-.687a1.948 1.948 0 0 0 0-2.747 1.946 1.946 0 0 0-1.686-.54c-.39.063-.764.242-1.063.54l-2.752 2.751.089.089.015.015c.755.754.755 1.99 0 2.744a1.947 1.947 0 0 1-2.747 0c.755.756.755 1.99 0 2.747a1.954 1.954 0 0 1-2.75 0c.757.754.757 1.99 0 2.744a1.951 1.951 0 0 1-2.747 0 1.942 1.942 0 1 1-2.748 2.744l-.104-.104-3.66 3.653 8.36 8.35 3.494-3.49c.99-1.023 3.307-.128 5.098-.495.51-.104.974-.312 1.355-.692z" fill="#FFD0C7"/><path fill-rule="evenodd" clip-rule="evenodd" d="M25.287 22.452a1.947 1.947 0 0 0 2.748 0 1.945 1.945 0 0 0 0-2.744l-.016-.015c-1.167-.085-3.398-2.108-3.531-3.527a1.95 1.95 0 0 0-2.75 0 1.945 1.945 0 0 0 0 2.744l.69.69 2.859 2.852z" fill="#FFDCD5"/><path fill-rule="evenodd" clip-rule="evenodd" d="M22.538 25.199a1.954 1.954 0 0 0 2.75 0 1.948 1.948 0 0 0 0-2.747L22.43 19.6a1.942 1.942 0 1 0-2.748 2.744l.689.688 2.167 2.167z" fill="#FFDCD5"/><path fill-rule="evenodd" clip-rule="evenodd" d="M19.79 27.943a1.951 1.951 0 0 0 2.747 0 1.942 1.942 0 0 0 0-2.744l-2.167-2.167a1.951 1.951 0 0 0-2.748 0 1.944 1.944 0 0 0 0 2.746l1.38 1.378.788.787z" fill="#FFDCD5"/><path fill-rule="evenodd" clip-rule="evenodd" d="M17.043 30.687a1.942 1.942 0 1 0 2.748-2.744l-.788-.787a1.95 1.95 0 0 0-2.75 0 1.946 1.946 0 0 0 0 2.744l.686.683.104.104zm10.888-11.083l2.752-2.75a1.926 1.926 0 0 1 1.063-.54l-5.316-1.006c-1.05-.2-2.043-.206-1.941.858.132 1.42 2.364 3.443 3.53 3.527l-.088-.089z" fill="#FFDCD5"/><path d="M27.93 13.083a.787.787 0 0 0 .788-.787v-3.51a.787.787 0 0 0-1.574 0v3.51c0 .434.352.787.787.787zM47.164 35.03l-1.39-1.386a2.607 2.607 0 0 0-1.856-.766c-.449 0-.88.112-1.261.321l-2.62-2.616.128-.127a2.73 2.73 0 0 0 0-3.856 2.701 2.701 0 0 0-1.37-.74 2.75 2.75 0 0 0 .109-.766c0-.731-.284-1.416-.798-1.928a2.7 2.7 0 0 0-1.37-.74 2.75 2.75 0 0 0 .109-.766c0-.731-.284-1.416-.799-1.93a2.713 2.713 0 0 0-1.368-.738 2.735 2.735 0 0 0-.69-2.696 2.731 2.731 0 0 0-2.22-.779l-5.19-.982c-.792-.15-1.78-.25-2.405.32-.04.035-.08.077-.119.123a2.736 2.736 0 0 0-2.87.631 2.707 2.707 0 0 0-.798 1.929c0 .263.038.52.109.765a2.697 2.697 0 0 0-1.368.74 2.738 2.738 0 0 0-.69 2.694 2.703 2.703 0 0 0-1.37.738 2.71 2.71 0 0 0-.798 1.93c0 .56.167 1.092.476 1.542a2.712 2.712 0 0 0-1.048.652 2.731 2.731 0 0 0 .001 3.858l.127.127-2.62 2.615a2.63 2.63 0 0 0-2.976.515l-1.39 1.387a2.605 2.605 0 0 0-.768 1.856c0 .703.273 1.362.767 1.856l1.736 1.733a.787.787 0 0 0 1.112-1.113L9.95 37.7a1.041 1.041 0 0 1-.305-.743c0-.282.108-.546.305-.742l1.39-1.387c.348-.347.88-.399 1.284-.157a.78.78 0 0 0 .325.278l7.976 7.964a.785.785 0 0 0 .38.384c.17.191.262.438.261.694 0 .282-.108.546-.305.742l-1.39 1.388a1.057 1.057 0 0 1-1.487.001l-1.736-1.735a.787.787 0 0 0-1.113 1.112l1.737 1.737a2.62 2.62 0 0 0 1.854.764c.672 0 1.345-.255 1.857-.765l1.39-1.388a2.605 2.605 0 0 0 .767-1.856c0-.502-.14-.98-.399-1.394l2.948-2.944.01-.01c.337-.349 1.277-.283 2.186-.22.646.045 1.366.095 2.07.014l3.229 3.224c-.21.381-.321.812-.321 1.26 0 .702.272 1.36.767 1.855l1.39 1.389a2.608 2.608 0 0 0 1.856.766c.702 0 1.36-.273 1.855-.766l8.433-8.423a2.604 2.604 0 0 0 .767-1.856c0-.702-.272-1.361-.767-1.856zm-20.88-18.95l3.413.647-2.043 2.042c-.316-.152-.749-.435-1.224-.89-.65-.622-1.116-1.34-1.158-1.788v-.001a.67.67 0 0 1-.003-.078c.102-.025.376-.053 1.015.069zm-3.989.642a1.16 1.16 0 0 1 1.469-.139c.255 1.07 1.168 2.04 1.578 2.433.305.292 1.281 1.165 2.267 1.405.135.193.207.424.206.66a1.145 1.145 0 0 1-1.153 1.152c-.31 0-.6-.12-.818-.338l-3.549-3.542a1.143 1.143 0 0 1-.335-.815c0-.31.119-.6.335-.816zm-2.056 3.434c.217-.217.507-.336.817-.336.31 0 .6.12.818.337l2.857 2.851c.45.45.45 1.184.002 1.633a1.153 1.153 0 0 1-.82.336c-.31 0-.601-.119-.818-.335l-2.168-2.167-.01-.01-.678-.678a1.145 1.145 0 0 1-.337-.817c0-.308.12-.597.337-.814zm-2.06 3.432c.217-.216.508-.335.818-.335.309 0 .597.117.812.33l2.174 2.173c.217.216.337.505.337.815a1.148 1.148 0 0 1-1.154 1.15c-.311 0-.602-.119-.819-.335l-.788-.787-1.38-1.378a1.146 1.146 0 0 1-.336-.816c0-.31.12-.6.337-.817zm-1.37 4.124a1.15 1.15 0 0 1 .819-.337c.31 0 .601.12.819.337l.789.788c.217.216.336.506.336.815 0 .31-.12.599-.338.816a1.146 1.146 0 0 1-.817.337c-.31 0-.6-.12-.818-.338l-.099-.099-.004-.004-.004-.004-.682-.679a1.155 1.155 0 0 1 0-1.632zm16.034 8.942a.787.787 0 0 0-1.112 0l-.7.699c-.666.665-1.87.581-3.037.5-1.265-.088-2.574-.178-3.421.691l-2.898 2.895-7.247-7.237 2.565-2.56c.424.26.913.4 1.424.4.732 0 1.417-.284 1.93-.797.515-.514.799-1.2.799-1.93v-.02h.02a2.71 2.71 0 0 0 1.928-.795c.515-.513.8-1.198.8-1.93l-.001-.02h.02a2.718 2.718 0 0 0 2.728-2.744h.021c.731 0 1.417-.283 1.93-.797a2.707 2.707 0 0 0 .797-1.929c0-.51-.139-.999-.398-1.422l2.248-2.247a1.154 1.154 0 0 1 .66-.326c.347-.047.712.06.978.324.45.451.45 1.184.001 1.633l-.684.682-.007.007-.789.787a.787.787 0 1 0 1.112 1.113l.688-.686.104-.104a1.159 1.159 0 0 1 1.633.004c.217.216.336.505.336.815 0 .309-.12.598-.338.816l-.688.69-.79.785a.787.787 0 1 0 1.111 1.115l.792-.789c.217-.216.507-.336.817-.336a1.147 1.147 0 0 1 1.155 1.152c0 .31-.12.6-.337.816l-1.373 1.373a.787.787 0 0 0 1.113 1.113l.672-.673.012-.01c.217-.218.507-.337.817-.337.31 0 .6.12.818.337.45.449.449 1.181 0 1.63l-.684.684-.002.002-1.085 1.084a.787.787 0 0 0 1.112 1.113l.53-.53 2.546 2.542-7.247 7.238-2.596-2.594c.187-.12.36-.259.517-.416l.7-.698a.786.786 0 0 0 0-1.113zm13.21.975l-8.434 8.422a1.044 1.044 0 0 1-.743.306c-.282 0-.546-.109-.744-.306l-1.39-1.388a1.04 1.04 0 0 1-.306-.742c0-.281.109-.544.306-.741l8.433-8.423c.197-.197.461-.305.743-.305.283 0 .547.108.744.306l1.39 1.386c.197.197.306.46.306.742s-.109.546-.306.743zm-28.569-25.21a.784.784 0 0 0 1.113 0 .787.787 0 0 0-.001-1.113l-2.867-2.862a.787.787 0 1 0-1.112 1.114l2.867 2.861zm20.34.23a.785.785 0 0 0 .556-.23l2.864-2.861a.787.787 0 1 0-1.112-1.113l-2.864 2.861a.787.787 0 0 0 .555 1.344z" fill="#000"/><path d="M12.908 41.844c-.304.31-.3.808.01 1.113l.002.002a.781.781 0 0 0 1.112-.01.788.788 0 0 0-1.124-1.105zm21.859-6.323a.788.788 0 1 0-.354-1.49l-.004.002a.785.785 0 0 0 .358 1.488z" fill="#000"/></g><defs><clipPath id="clip0_596_5193"><path fill="#fff" transform="translate(8 8)" d="M0 0h40v40H0z"/></clipPath></defs></svg>
